X: 5
T: Julia Delaney's
R: reel
M: 4/4
L: 1/8
K: Edor
edBA ~G2FG | ~F2 EF GE E2 | edBA GABB | Beed e2 gf :||g2gf gbag | fdad bdad | g2gf gbag | fedA Bee2 :||


Tune 589	Setting 23581

